icon-svg/n64.svg

<svg xmlns="http://www.w3.org/2000/svg" viewBox="0 0 24 24"><path fill="#44739e" d="m22 5.868-2.967-1.052-2.816 1.176-.117.049-2.077 2.237-.085-.038.551-.593.029-4.23h.007l-2.792-1.085-2.651 1.03L7.637 6.08l-.059-.119-2.8-.977-2.7.95h.007L2 17.562l2.828 1.183.02.009v-.018l2.632-1.1 1.6 2.826 2.912 1.207 2.854-1.201.008-4.07.892 1.266 3.288 1.158 2.875-1.168L22 5.866Zm-2.959-.926 2.638.936-2.763 1.159-2.506-1ZM5.061 7.181l2.446-1.032L8.9 8.955l.121 5.835Zm6.672-4.754 2.546.987-2.324.876-2.621-.932ZM9.137 3.505l2.7.94-2.25 3.914-.676.317v.011L7.692 6.225ZM4.781 5.076l2.555.892-2.569 1.084-2.449-1.109Zm.163 13.499L4.91 13.21l2.441 4.359Zm7.029-8.66L9.2 8.732l2.777-1.188 2.789 1.215-.132.055Zm9.791 7.659-2.68 1.089-4.37-5.834-.014 7.554-2.562 1.075-.089-11.417 2.876-1.189 4.067 5.8.018-7.418 2.844-1.152Z"/></svg>

<?xml version="1.0" encoding="UTF-8"?>
<svg width="24px" fill="#44739e" height="24px" viewBox="0 0 24 24" version="1.1" xmlns="http://www.w3.org/2000/svg" xmlns:xlink="http://www.w3.org/1999/xlink">
            <path d="M 22,5.863 19.033,4.811 16.217,5.987 16.1,6.036 v 0 l -2.077,2.237 -0.085,-0.038 0.551,-0.593 0.029,-4.23 h 0.007 L 11.733,2.327 9.082,3.357 v 0 L 7.637,6.075 7.578,5.956 v 0 l -2.8,-0.977 -2.7,0.95 H 2.085 L 2,17.557 4.828,18.74 v 0 0 l 0.02,0.009 v -0.017 l 2.632,-1.1 1.6,2.826 2.912,1.206 v 0 l 2.854,-1.2 0.008,-4.07 0.892,1.266 3.288,1.158 v 0 L 21.909,17.649 22,5.861 Z m -2.959,-0.926 2.638,0.936 -2.763,1.159 -2.506,-1 z M 5.061,7.176 7.507,6.144 8.9,8.95 9.021,14.785 Z M 11.733,2.422 14.279,3.409 11.955,4.285 9.334,3.353 Z M 9.137,3.5 l 2.7,0.94 v 0 L 9.587,8.354 8.911,8.671 V 8.682 L 7.692,6.22 Z M 4.781,5.071 7.336,5.963 4.767,7.047 2.318,5.938 Z m 0.163,13.5 -0.034,-5.366 2.441,4.359 z M 11.973,9.911 9.2,8.727 11.977,7.539 14.766,8.754 14.634,8.809 Z m 9.791,7.658 -2.68,1.089 -4.37,-5.833 -0.014,7.554 -2.562,1.074 -0.089,-11.417 2.876,-1.189 4.067,5.8 0.018,-7.418 2.844,-1.152 z"/>

</svg>
